X: 10854
T: TRIP TO DUBLIN -- Jig
R: jig
B: K\"ohler's Violin Repository, v.1, 1885 p.85 #4
F: http://www.archive.org/details/klersviolinrepos01edin
Z: 2012 John Chambers <jc:trillian.mit.edu>
M: 6/8
L: 1/8
K: G
|: ud |\
g>fg (.e2.d) | B>ee d>BA | B>GG d>GG | B>AA (.A2.f) |\
g>fg (.e2.d) | B>ee d>BA | B>GG d>AA | B>GG G2 :|
|: ud |\
g>fg a>fd | g>fg a>fd | g>fg e>ag | f>dd (.d2.d) |\
b>gb a>fd | g>fg d>BG | B>ee d>BA | B>GG G2 :|

%%sep 2 1 500

